packages/sources/assets/src/assets/poste-pay.svg

<svg width="58" height="40" viewBox="0 0 58 40" fill="none" xmlns="http://www.w3.org/2000/svg">
<rect x="0.5" y="0.5" width="57" height="39" rx="3.5" fill="#FBE200" stroke="#F3F3F3"/>
<path fill-rule="evenodd" clip-rule="evenodd" d="M7.4319 16.8005C7.43079 16.8009 7.42969 16.8014 7.4286 16.8018V17.4661C7.26465 17.5126 7.0975 17.6077 6.9336 17.7027C6.6234 17.9172 6.3627 18.2241 6.1746 18.6069C5.9601 18.9864 5.7951 19.4385 5.6763 19.9368C5.5575 20.4582 5.5344 20.8641 5.5575 21.1974C5.5806 21.5769 5.7225 21.864 5.9601 22.1016C6.1977 22.3161 6.5079 22.4349 6.8874 22.4349C7.0763 22.4349 7.26198 22.4124 7.4286 22.3643V23.3127H7.2207C6.7686 23.3127 6.4122 23.217 6.0789 23.052C5.7687 22.887 5.4849 22.623 5.2473 22.293L4.4883 25.5963H3.2244V25.593L4.8645 18.3924C4.8876 18.2505 4.91152 18.1136 4.93545 17.9766C4.95937 17.8397 4.9833 17.7027 5.0064 17.5608C5.0295 17.277 5.0526 17.013 5.079 16.7292H6.2208L6.1251 17.7027C6.4815 17.3463 6.8379 17.0625 7.1943 16.8942C7.25957 16.8527 7.34085 16.8272 7.40936 16.8057C7.41704 16.8032 7.42457 16.8009 7.4319 16.7985V16.8005ZM7.4352 23.3121V23.3127H7.4286C7.4308 23.3125 7.433 23.3123 7.4352 23.3121ZM7.4352 23.3121V22.3623C7.433 22.363 7.4308 22.3636 7.4286 22.3643V22.3623C7.5936 22.3161 7.7619 22.2435 7.9038 22.1709C8.214 21.9795 8.4747 21.6957 8.6892 21.3162C8.9037 20.9367 9.0687 20.5308 9.1875 20.082C9.3063 19.6299 9.3294 19.2042 9.3063 18.7983C9.2601 18.3693 9.1149 18.0393 8.8773 17.7753C8.6166 17.5146 8.2833 17.3958 7.9038 17.3958C7.7388 17.3958 7.5705 17.4189 7.4286 17.4684V17.4661C7.4297 17.4658 7.4308 17.4654 7.4319 17.4651V16.8005C7.71498 16.6827 8.0469 16.6368 8.3559 16.6368C8.973 16.6368 9.4977 16.8282 9.8772 17.2077C10.2798 17.5872 10.4943 18.135 10.5669 18.7983C10.6131 19.2735 10.5669 19.7949 10.425 20.3427C10.3062 20.8905 10.1148 21.3657 9.8541 21.7683C9.5703 22.2666 9.1875 22.6461 8.7123 22.9101C8.33455 23.1466 7.90777 23.2654 7.4352 23.3121Z" fill="#004A99"/>
<path fill-rule="evenodd" clip-rule="evenodd" d="M37.5635 17.7898C37.6833 17.7699 37.7898 17.7522 37.914 17.7522C38.2242 17.7522 38.4618 17.8479 38.6466 18.0327C38.8149 18.201 38.9337 18.4617 38.9568 18.8181C38.9799 19.125 38.9568 19.4814 38.8611 19.9104C38.7687 20.3394 38.6235 20.742 38.4585 21.0984C38.2902 21.4317 38.1252 21.6693 37.9107 21.8343C37.7919 21.93 37.65 22.0026 37.5081 22.0257V22.0331C37.4167 22.056 37.3221 22.0785 37.2276 22.0785C36.8943 22.0785 36.6336 21.9597 36.4422 21.7452C36.2277 21.5307 36.132 21.2205 36.0858 20.8179C36.0165 20.0325 36.1584 19.3197 36.5379 18.6795C36.7986 18.2307 37.1319 17.9205 37.5114 17.8017V17.7984C37.5291 17.7955 37.5464 17.7927 37.5635 17.7898ZM37.5114 16.8777V16.8711C37.584 16.848 37.6302 16.8249 37.6764 16.7985C38.0097 16.6335 38.3892 16.5609 38.7918 16.5609C39.4089 16.5609 39.9072 16.7523 40.2636 17.1087C40.62 17.4651 40.8345 17.9865 40.8807 18.6762C40.9995 19.9599 40.7619 21.0522 40.1448 21.93C39.5508 22.8342 38.7423 23.283 37.7457 23.283C37.7094 23.283 37.6681 23.2772 37.6269 23.2715C37.5869 23.2659 37.5469 23.2603 37.5114 23.2599V22.0323C37.5103 22.0326 37.5092 22.0329 37.5081 22.0331V23.2599C37.5092 23.2599 37.5103 23.2599 37.5114 23.2599V23.2665C37.155 23.2434 36.8448 23.1477 36.5841 23.0058C36.2508 22.8408 35.9901 22.5537 35.7987 22.1973L35.0397 25.5963H33.0663L34.5876 18.7059C34.779 17.8281 34.8978 17.1615 34.944 16.7325H36.726L36.6798 17.5179C36.9636 17.2572 37.2276 17.0427 37.5114 16.8777Z" fill="#004A99"/>
<path fill-rule="evenodd" clip-rule="evenodd" d="M45.3258 20.1051C45.2796 20.082 45.2301 20.082 45.1839 20.082H44.9694C44.6592 20.082 44.3754 20.1051 44.1378 20.1777C43.8771 20.2503 43.6626 20.3427 43.4712 20.4879C43.0686 20.7486 42.9003 21.0819 42.9498 21.4614C42.9498 21.6759 43.0224 21.8409 43.1643 21.9597C43.2831 22.0785 43.4481 22.1247 43.6626 22.1247C43.8276 22.1247 43.9959 22.1016 44.1378 22.029V22.0257C44.3292 21.93 44.5173 21.7881 44.7087 21.5736C45.0189 21.1974 45.2334 20.6991 45.3258 20.1051ZM44.1378 19.1283V19.1316C44.3985 19.1085 44.7087 19.1085 45.0156 19.1085H45.3489H45.5634C45.5771 19.0378 45.5912 18.9735 45.6041 18.9142C45.6347 18.7744 45.6591 18.6627 45.6591 18.5607C45.6822 18.4419 45.6822 18.3462 45.6822 18.2505C45.6591 18.0591 45.5865 17.9172 45.4446 17.8215C45.3258 17.7258 45.1344 17.6796 44.8968 17.6796C44.613 17.6796 44.3985 17.7522 44.2566 17.871C44.2448 17.8829 44.2327 17.8934 44.221 17.9037L44.221 17.9037C44.1868 17.9336 44.155 17.9614 44.1378 18.0129C44.0421 18.1317 43.9959 18.2967 43.9464 18.4881H42.0687C42.1149 17.8941 42.402 17.442 42.8772 17.1087C43.2369 16.8975 43.6395 16.7556 44.1378 16.683C44.3754 16.6368 44.6361 16.6368 44.8968 16.6368C45.7284 16.6368 46.3455 16.7556 46.7976 17.0394C47.2266 17.3232 47.4642 17.7291 47.5104 18.2736C47.5335 18.4386 47.5335 18.6069 47.5104 18.795C47.4913 18.9312 47.4543 19.1012 47.4159 19.277L47.3916 19.389L46.8933 21.5736C46.8411 21.7611 46.8145 21.9485 46.7865 22.1457L46.7865 22.1458C46.7755 22.2229 46.7644 22.3015 46.7514 22.3821C46.7283 22.6659 46.7283 22.9299 46.7283 23.2137H44.9232V22.7616C44.9232 22.6771 44.929 22.5992 44.9348 22.5217L44.9348 22.5217C44.9406 22.4449 44.9463 22.3685 44.9463 22.2864C44.7087 22.6197 44.4249 22.8804 44.1378 23.0223V23.0256L44.0916 23.0487C43.7814 23.2137 43.4514 23.3094 43.0455 23.3094C42.4746 23.3094 42.0225 23.1444 41.6661 22.8342C41.3097 22.524 41.1183 22.1214 41.0721 21.6C40.9995 20.7915 41.3097 20.1744 41.9763 19.7454C42.4977 19.4121 43.2105 19.1976 44.1378 19.1283Z" fill="#004A99"/>
<path d="M47.847 25.5699L49.4145 23.1939L48.2727 16.683H50.223L50.7675 21.1512L53.2854 16.683H55.14L51.1008 23.4546L49.9359 25.5699H47.847Z" fill="#004A99"/>
<path fill-rule="evenodd" clip-rule="evenodd" d="M13.8273 17.4202C13.9896 17.3721 14.1331 17.3496 14.2959 17.3496C14.748 17.3496 15.0813 17.4684 15.3156 17.7093C15.5532 17.9238 15.6984 18.2802 15.7446 18.7785C15.7677 19.158 15.7215 19.587 15.6027 20.1084C15.4839 20.6067 15.3189 21.0588 15.0813 21.4614C14.8668 21.8178 14.6292 22.0818 14.3454 22.2468C14.2043 22.342 14.0176 22.4143 13.8273 22.4605V22.458C13.6854 22.4811 13.5402 22.5042 13.3752 22.5042C12.9462 22.5042 12.6129 22.3854 12.3522 22.1478C12.1146 21.9102 11.9463 21.6033 11.9232 21.1743C11.9001 20.7948 11.9232 20.3427 12.042 19.8213C12.1608 19.2999 12.3258 18.8709 12.5403 18.5145C12.7515 18.135 13.0155 17.8512 13.2993 17.6367C13.4643 17.541 13.6557 17.4684 13.8207 17.4222H13.8273V17.4202ZM13.8273 16.5898C14.0169 16.5675 14.2258 16.5675 14.4378 16.5675C15.1968 16.5675 15.7908 16.7589 16.2429 17.1153C16.7181 17.4948 16.9557 18.0195 17.0283 18.6828C17.0745 19.2042 17.0283 19.7751 16.8633 20.3691C16.7214 20.9631 16.5069 21.4845 16.2231 21.9135C15.8898 22.4118 15.5103 22.7682 15.0351 22.9827C14.7018 23.1477 14.2992 23.2434 13.824 23.2929V23.2896C13.8251 23.2896 13.8262 23.2896 13.8273 23.2896V22.4605C13.8262 22.4608 13.8251 22.461 13.824 22.4613V23.2896C13.7455 23.2898 13.6611 23.295 13.5736 23.3005C13.478 23.3065 13.3787 23.3127 13.2795 23.3127C12.5205 23.3127 11.9001 23.1213 11.4513 22.7187C10.9761 22.3392 10.7154 21.7914 10.6659 21.1017C10.6197 20.5308 10.6659 19.9599 10.8573 19.3428C11.0223 18.7257 11.2599 18.201 11.5932 17.7522C11.9034 17.3496 12.2829 17.0625 12.7581 16.848C13.0683 16.7292 13.4478 16.6335 13.8273 16.5873V16.5898ZM13.8273 16.5898C13.8251 16.5901 13.8229 16.5903 13.8207 16.5906V17.4222C13.8229 17.4215 13.8251 17.4209 13.8273 17.4202V16.5898Z" fill="#004A99"/>
<path d="M18.3351 21.0786C18.2889 21.1974 18.2625 21.2931 18.2625 21.3888C18.2394 21.4845 18.2394 21.5538 18.2625 21.6264C18.2856 21.8871 18.3813 22.0785 18.5727 22.1973C18.7641 22.3392 19.0248 22.3887 19.4043 22.3887C19.9026 22.3887 20.2821 22.293 20.5692 22.1049C20.853 21.8904 20.9718 21.6297 20.9487 21.3195C20.9487 21.1281 20.853 20.9631 20.688 20.8212C20.523 20.6793 20.1897 20.4879 19.665 20.2503C18.9984 19.9401 18.5232 19.6563 18.2625 19.3956C17.9787 19.158 17.8335 18.8478 17.8104 18.5178C17.7642 17.9469 17.9754 17.4948 18.4275 17.1153C18.9027 16.7589 19.5429 16.5675 20.3514 16.5675C21.0873 16.5675 21.6351 16.6863 21.9915 16.9008C22.371 17.1153 22.5624 17.4222 22.6086 17.8743C22.6086 17.9469 22.6086 18.0162 22.6086 18.1119C22.6086 18.1845 22.6086 18.3033 22.5855 18.4683H21.4206C21.4206 18.3957 21.4206 18.3264 21.4206 18.2769C21.4206 18.2274 21.4206 18.1581 21.4206 18.1119C21.3975 17.8743 21.3018 17.6829 21.1104 17.5641C20.9454 17.4453 20.6814 17.3727 20.325 17.3727C19.9224 17.3727 19.6122 17.4684 19.3977 17.6334C19.1601 17.7984 19.0644 18.036 19.0875 18.3231C19.1106 18.4881 19.1832 18.6564 19.3482 18.7752C19.4901 18.9171 19.8465 19.1085 20.3943 19.3692C21.1533 19.7256 21.678 20.0358 21.8925 20.2734C22.107 20.511 22.2489 20.8212 22.272 21.1776C22.3182 21.7716 22.0806 22.293 21.513 22.6989C20.9652 23.1015 20.2293 23.316 19.3284 23.316C18.6156 23.316 18.0678 23.1741 17.6421 22.9365C17.2395 22.6758 17.025 22.3194 16.9755 21.8442C16.9524 21.7485 16.9524 21.6297 16.9755 21.4878C16.9986 21.369 17.0217 21.2271 17.0481 21.0852H18.3351V21.0786Z" fill="#004A99"/>
<path d="M26.1528 23.217C25.9152 23.2401 25.7007 23.2632 25.5126 23.2896C25.3212 23.2896 25.1331 23.3127 24.9648 23.3127C24.4896 23.3127 24.1332 23.2401 23.9187 23.0751C23.6811 22.9332 23.5623 22.6725 23.5392 22.3161C23.5161 22.1973 23.5392 21.9828 23.5623 21.7221C23.5854 21.4383 23.658 21.1512 23.7042 20.8443L24.4401 17.6136H23.2521L23.4666 16.782H24.6315L24.9648 15.3102L26.2254 15L25.8459 16.782H27.2484L27.057 17.6136H25.6545L24.9417 20.9862C24.8691 21.2469 24.8229 21.4383 24.8229 21.5571C24.7998 21.699 24.7767 21.7947 24.7998 21.8673C24.7998 22.0587 24.8724 22.1775 24.9912 22.2468C25.11 22.3425 25.3245 22.3887 25.6083 22.3887C25.704 22.3887 25.8459 22.3656 25.9878 22.3425C26.1066 22.3425 26.2485 22.2963 26.3673 22.2699L26.1528 23.217Z" fill="#004A99"/>
<path fill-rule="evenodd" clip-rule="evenodd" d="M30.2646 19.2273H31.8816C31.8871 19.1758 31.8927 19.1271 31.8979 19.0812C31.9145 18.9362 31.9278 18.8193 31.9278 18.729C31.9509 18.6102 31.9509 18.5145 31.9278 18.4188C31.9047 18.0624 31.7628 17.8017 31.5252 17.6103C31.2645 17.4189 30.9312 17.3001 30.5022 17.3001C30.4659 17.3001 30.4246 17.3059 30.3834 17.3117C30.3421 17.3175 30.3009 17.3232 30.2646 17.3232V17.3265C29.8851 17.3727 29.5518 17.5179 29.2911 17.8017C28.9578 18.1086 28.7202 18.5838 28.6014 19.2273H30.2646ZM30.2646 20.1018V20.1051H28.3869C28.3143 20.2965 28.2912 20.4615 28.2681 20.6529C28.245 20.8179 28.245 20.9862 28.245 21.1281C28.2912 21.5307 28.4364 21.8409 28.674 22.0554C28.9347 22.2699 29.268 22.3887 29.7201 22.3887C29.9102 22.3887 30.0971 22.3659 30.2646 22.2945V23.2665C30.2657 23.2664 30.2668 23.2662 30.2679 23.2661V23.2665C30.0534 23.2896 29.8158 23.3127 29.5782 23.3127C28.8192 23.3127 28.2252 23.1213 27.7731 22.7649C27.3441 22.4085 27.0834 21.8871 27.0372 21.2205C26.991 20.7222 27.0372 20.1513 27.2022 19.5111C27.3441 18.894 27.5817 18.3462 27.8424 17.8941C28.1262 17.4651 28.509 17.1087 28.9578 16.8975C29.3373 16.683 29.7663 16.5873 30.2646 16.5411V16.5378H30.5253C31.3569 16.5378 31.9971 16.7028 32.4261 17.013C32.8287 17.3232 33.0927 17.8215 33.1389 18.5112C33.162 18.7488 33.162 19.0095 33.1389 19.2702C33.1389 19.5309 33.0927 19.818 33.0201 20.1018H30.2646ZM30.2679 23.2661C30.7879 23.1932 31.2389 23.0284 31.6176 22.7682C32.1654 22.4118 32.5218 21.9102 32.6868 21.27H31.2843C31.1655 21.6264 30.951 21.9102 30.6672 22.1016C30.5484 22.1742 30.4065 22.2468 30.2646 22.293V22.2945C30.2657 22.294 30.2668 22.2935 30.2679 22.293V23.2661Z" fill="#004A99"/>
</svg>

<svg width="58" height="40" fill="none" xmlns="http://www.w3.org/2000/svg"><rect x=".5" y=".5" width="57" height="39" rx="3.5" fill="#FBE200" stroke="#F3F3F3"/><path fill-rule="evenodd" clip-rule="evenodd" d="m7.432 16.8-.003.002v.664a2.298 2.298 0 0 0-.495.237c-.31.214-.571.521-.76.904-.214.38-.379.832-.498 1.33-.119.521-.142.927-.119 1.26.024.38.165.667.403.905.238.214.548.333.927.333.19 0 .375-.023.542-.07v.948H7.22a2.47 2.47 0 0 1-1.142-.261 2.502 2.502 0 0 1-.832-.759l-.759 3.303H3.224v-.003l1.64-7.2.071-.416c.024-.137.048-.274.071-.416.023-.284.047-.548.073-.832h1.142l-.096.974c.356-.357.713-.64 1.07-.809a.912.912 0 0 1 .214-.088l.023-.008v.003Zm.003 6.512H7.43h.006Zm0 0v-.95l-.006.002v-.002c.165-.046.333-.118.475-.191.31-.191.57-.475.785-.855.215-.38.38-.785.498-1.234.12-.452.142-.878.12-1.284-.047-.429-.192-.759-.43-1.023-.26-.26-.594-.38-.973-.38-.165 0-.333.024-.475.073v-.002h.003V16.8c.283-.117.615-.163.924-.163.617 0 1.142.191 1.521.57.403.38.617.928.69 1.591.046.476 0 .997-.142 1.545a4.261 4.261 0 0 1-.57 1.425 2.943 2.943 0 0 1-1.143 1.142c-.377.237-.804.355-1.277.402Zm30.128-5.522c.12-.02.227-.038.351-.038.31 0 .548.096.733.28.168.169.287.43.31.786.023.307 0 .663-.096 1.092a5.71 5.71 0 0 1-.402 1.188c-.169.334-.334.571-.548.736a.891.891 0 0 1-.403.192v.007a1.17 1.17 0 0 1-.28.045c-.334 0-.594-.118-.786-.333-.214-.214-.31-.524-.356-.927-.07-.786.072-1.498.452-2.139.26-.448.594-.758.973-.877v-.004l.052-.008Zm-.052-.912v-.007a.789.789 0 0 0 .165-.072 2.498 2.498 0 0 1 1.116-.238c.617 0 1.115.191 1.472.548.356.356.57.877.617 1.567.118 1.284-.12 2.376-.736 3.254-.594.904-1.403 1.353-2.4 1.353a.858.858 0 0 1-.118-.012.95.95 0 0 0-.116-.011v-1.228l-.003.001v1.227h.003v.006a2.227 2.227 0 0 1-.927-.26c-.333-.165-.594-.452-.785-.809l-.76 3.4h-1.973l1.522-6.891c.191-.878.31-1.544.356-1.973h1.782l-.046.785c.284-.26.548-.475.831-.64Zm7.815 3.227c-.046-.023-.096-.023-.142-.023h-.215c-.31 0-.594.023-.831.096-.26.072-.475.165-.667.31-.402.26-.57.594-.521.973 0 .215.072.38.214.499.12.118.284.165.499.165.165 0 .333-.023.475-.096v-.003c.191-.096.38-.238.57-.452.31-.377.525-.875.618-1.469Zm-1.188-.977v.004c.26-.024.57-.024.878-.024h.547l.041-.194c.03-.14.055-.251.055-.353.023-.12.023-.215.023-.31-.023-.192-.096-.334-.237-.43-.12-.095-.31-.141-.548-.141-.284 0-.498.072-.64.191l-.036.033c-.034.03-.066.057-.083.109-.096.119-.142.284-.192.475H42.07c.046-.594.333-1.046.808-1.38.36-.21.762-.352 1.26-.425.238-.046.5-.046.76-.046.831 0 1.449.119 1.9.402.43.284.667.69.713 1.235.023.165.023.333 0 .521-.019.136-.056.306-.094.482l-.024.112-.499 2.185c-.052.187-.078.374-.107.572-.01.077-.022.155-.035.236-.023.284-.023.548-.023.832h-1.805v-.452c0-.085.006-.163.012-.24.006-.077.011-.153.011-.236-.237.334-.521.594-.808.736v.004l-.046.023c-.31.165-.64.26-1.047.26-.57 0-1.023-.165-1.379-.475-.356-.31-.548-.713-.594-1.234-.073-.809.238-1.426.904-1.855.522-.333 1.235-.547 2.162-.617Z" fill="#004A99"/><path d="m47.847 25.57 1.567-2.376-1.141-6.511h1.95l.544 4.468 2.518-4.468h1.855l-4.04 6.772-1.164 2.115h-2.089Z" fill="#004A99"/><path fill-rule="evenodd" clip-rule="evenodd" d="M13.827 17.42a1.58 1.58 0 0 1 .469-.07c.452 0 .785.118 1.02.36.237.214.382.57.429 1.069.023.379-.023.808-.142 1.33-.12.498-.284.95-.522 1.352-.214.357-.452.62-.736.786a1.644 1.644 0 0 1-.518.213v-.002a2.72 2.72 0 0 1-.452.046c-.429 0-.762-.119-1.023-.356a1.426 1.426 0 0 1-.429-.974c-.023-.38 0-.831.119-1.353.119-.521.284-.95.498-1.306a2.78 2.78 0 0 1 .76-.878c.164-.096.356-.169.52-.215h.007v-.002Zm0-.83c.19-.023.399-.023.61-.023.76 0 1.354.192 1.806.548.475.38.713.905.785 1.568.047.521 0 1.092-.165 1.686-.142.594-.356 1.116-.64 1.544-.333.499-.713.855-1.188 1.07-.333.165-.736.26-1.211.31v-.003h.003v-.83l-.003.001v.829c-.079 0-.163.005-.25.01a4.701 4.701 0 0 1-.294.013c-.76 0-1.38-.192-1.829-.594-.475-.38-.736-.928-.785-1.617a4.57 4.57 0 0 1 .191-1.76c.165-.616.403-1.141.736-1.59.31-.402.69-.69 1.165-.904.31-.119.69-.214 1.07-.26v.002Zm0 0h-.006v.832l.006-.002v-.83Z" fill="#004A99"/><path d="M18.335 21.079a.854.854 0 0 0-.073.31.414.414 0 0 0 0 .237c.024.261.12.452.31.571.192.142.453.192.832.192.499 0 .878-.096 1.165-.284.284-.215.403-.475.38-.785 0-.192-.096-.357-.261-.499-.165-.142-.498-.333-1.023-.57-.667-.31-1.142-.595-1.402-.855a1.236 1.236 0 0 1-.453-.878c-.046-.571.165-1.023.617-1.403.476-.356 1.116-.547 1.924-.547.736 0 1.284.118 1.64.333.38.214.571.521.618.973v.238c0 .073 0 .191-.024.356h-1.164v-.356c-.023-.238-.12-.43-.31-.548-.166-.119-.43-.191-.786-.191-.403 0-.713.095-.927.26-.238.165-.334.403-.31.69a.648.648 0 0 0 .26.452c.142.142.498.334 1.046.594.76.357 1.284.667 1.498.904.215.238.357.548.38.905.046.594-.191 1.115-.759 1.52-.548.404-1.284.618-2.185.618-.712 0-1.26-.142-1.686-.38a1.399 1.399 0 0 1-.666-1.092.917.917 0 0 1 0-.356c.023-.119.046-.26.072-.403h1.287v-.006Zm7.818 2.138c-.238.023-.452.046-.64.073-.192 0-.38.023-.548.023-.475 0-.832-.073-1.046-.238-.238-.142-.357-.402-.38-.759-.023-.119 0-.333.023-.594.023-.284.096-.57.142-.878l.736-3.23h-1.188l.215-.832h1.165l.333-1.472 1.26-.31-.38 1.782h1.403l-.191.832h-1.402l-.713 3.372c-.073.26-.12.452-.12.571-.022.142-.045.238-.022.31 0 .192.072.31.191.38.119.096.334.142.617.142.096 0 .238-.023.38-.046.119 0 .26-.047.38-.073l-.215.947Z" fill="#004A99"/><path fill-rule="evenodd" clip-rule="evenodd" d="M30.265 19.227h1.617l.016-.146c.017-.145.03-.262.03-.352a.7.7 0 0 0 0-.31c-.023-.357-.165-.617-.403-.809-.26-.191-.594-.31-1.023-.31a.897.897 0 0 0-.119.012.897.897 0 0 1-.118.011v.003c-.38.047-.713.192-.974.476-.333.307-.57.782-.69 1.425h1.664Zm0 .875v.003h-1.878a2.174 2.174 0 0 0-.119.548c-.023.165-.023.333-.023.475.046.403.191.713.429.927.26.215.594.334 1.046.334.19 0 .377-.023.545-.095v.973h.003a6.478 6.478 0 0 1-.69.046c-.759 0-1.353-.192-1.805-.548-.429-.357-.69-.878-.736-1.544-.046-.499 0-1.07.165-1.71.142-.617.38-1.165.64-1.617a2.789 2.789 0 0 1 1.116-.996c.38-.215.808-.31 1.307-.357v-.003h.26c.832 0 1.472.165 1.901.475.403.31.667.808.713 1.498.023.238.023.498 0 .76 0 .26-.046.547-.119.83h-2.755Zm.003 3.164c.52-.073.97-.238 1.35-.498a2.46 2.46 0 0 0 1.069-1.498h-1.403a1.59 1.59 0 0 1-.617.832c-.119.072-.26.145-.402.191v.002l.003-.002v.973Z" fill="#004A99"/></svg>
